!!!COM: Schubert, Franz
!!!CNT: Deutscher
!!!TXO: Deutsch
!!!LYR: Franz von Schober
!!!OTL: "An die Musik"
!!!OPS: Op. 88
!!!ONM: No. 4
!!!ODT: 1817/
!!NB: Vocal melody only encoded.
!!NB: Original key: D Major
**kern	**silbe
*clefG2	*
*k[]	*
*M2/2	*
*MM[Massig]	*
=3	=3
4r	.
{4g	{Du
4cc	hol-
4cc	-de
=4	=4
2.e}	Kunst,}
{4a	{in
=5	=5
aq	wie-
4.c	|
8c	-viel
8e	grau-
8d	|
8c	-en
8d	|
=6	=6
4e	Stun-
4c}	-den,}
2r	.
=7	=7
4r	.
{4g	{wo
4a	mich
4a	des
=8	=8
4.B	Le-
8B	-bens
4.c	wil-
8c	-der
=9	=9
8e	Kreis
8d	|
8c	um-
8d	|
2e}	-strickt,}
=10	=10
1r	.
=11	=11
4r	.
{4cc	{hast
4.dd	du
8f	mein
=12	=12
4e	Herz
2g}	|}
{8a	{zu
8b	|
=13	=13
4.cc	war-
8ee	-mer
8dd	Lieb
8b	|
8g	ent-
8f	|
=14	=14
fq	-zun-
4e	|
4e}	-den,}
4r	.
{4g	{hast
=15	=15
4.a	mich
8a	in
4a	ei-
8b	-ne
8cc	|
=16	=16
4.cc	bess-
8cc	-re
4.ee	Welt
8dd	ent-
=17	=17
ddq	-ru2ckt,
2cc}	|}
8r	.
{8a	{in
8b	ei-
8cc	-ne
=18	=18
4cc	bess-
8e	|
8e	-re
4g	Welt
8B	|
8B	ent-
=19	=19
2c}	-ru2ckt!}
2r	.
=20	=20
1r	.
=21	=21
1r	.
=22	=22
1r	.
=23	=23
4r	.
{4g	{Oft
4cc	hat
4cc	ein
=24	=24
2.e	Seuf-
4a	-zer,
=25	=25
aq	dei-
4.c	|
8c	-ner
8e	Harf
8d	|
8c	ent-
8d	|
=26	=26
4e	-flos-
4c}	-sen,}
2r	.
=27	=27
4r	.
{4g	{ein
4a	su2-
4a	-sser,
=28	=28
4.B	hei-
8B	-li-
4.c	-ger
8c	Ak-
=29	=29
8e	-kord
8d	|
8c	von
8d	|
2e}	dir}
=30	=30
1r	.
=31	=31
4r	.
{4cc	{den
4.dd	Him-
8f	-mel
=32	=32
4e	bess-
2g	|
8a	-rer
8b	|
=33	=33
4.cc	Zei-
8ee	-ten
8dd	mir
8b	|
8g	er-
8f	|
=34	=34
fq	-schlos-
4e	|
4e}	-sen,}
4r	.
{4g	{du
=35	=35
4.a	hol-
8a	-de
4a	Kunst,
8b	ich
8cc	|
=36	=36
4.cc	dan-
8cc	-ke
4.ee	dir
8dd	da-
=37	=37
ddq	-fu2r,
2cc}	|}
8r	.
{8a	{du
8b	hol-
8cc	-de
=38	=38
4cc	Kunst,
8e	|
8e	ich
4g	dan-
8B	|
8B	-ke
=39	=39
2c}	dir!}
2r	.
==	==
*-	*-